X: 135
T: Mrs Philip Dundas's Reel
R: reel
B: William Shepherd "1st Collection" 1793 p.13 #5
F: http://imslp.org/wiki/File:PMLP73094-Shepherd_Collections_HMT.pdf
C: William Shepherd (17??-1812)
Z: 2012 John Chambers <jc:trillian.mit.edu>
M: C|
L: 1/8
K: C
G/F/ | ECGE cBAG | AGAc dDDF | ECGE cGAE | FD E/F/G/F/ ECCF \
     | ECGE cBAG | AGAc dDDF | EGcE FAdf | ecdB cCC |]
g/f/ | ecgc acgc | fedc B/c/d/B/ Gf | ecgc acgc | fd e/f/g/f/ eccg \
     | ecgc acgc | fedc BcdB | cGAc GcGE | FD E/F/G/F/ ECC |]
